X:130
T:Haste to the Wedding
K:D
R:Jig
M:6/8
L:1/8
AFA Agf | ede fdB | AFA AFD | GFG EFG |
AFA Agf | ede fdB | ABA faf | d3 d3 :|
|: afa afa | bgb bgb | afa afd | gfg efg |
a3 f3 | ede fdB | ABA faf | d3 d3 :|

%%newpage
%%scale .65
%%staffsep 35

